assets/images/companies/ddb.svg

<?xml version="1.0" encoding="UTF-8"?>
<svg xmlns="http://www.w3.org/2000/svg" xmlns:xlink="http://www.w3.org/1999/xlink" width="283.46pt" height="104.88pt" viewBox="0 0 283.46 104.88" version="1.1">
<g id="surface1">
<path style=" stroke:none;fill-rule:nonzero;fill:rgb(0%,0%,0%);fill-opacity:1;" d="M 20.554688 87.597656 L 38.886719 87.597656 C 50.800781 87.597656 62.195312 80.261719 62.195312 59.574219 C 62.195312 40.722656 55.648438 28.675781 35.222656 28.675781 L 20.554688 28.675781 Z M 0 11.394531 L 40.328125 11.394531 C 64.550781 11.394531 82.75 26.582031 82.75 57.613281 C 82.75 84.714844 68.871094 104.878906 40.328125 104.878906 L 0 104.878906 L 0 11.394531 "/>
<path style=" stroke:none;fill-rule:nonzero;fill:rgb(0%,0%,0%);fill-opacity:1;" d="M 107.328125 87.597656 L 125.65625 87.597656 C 137.574219 87.597656 148.964844 80.261719 148.964844 59.574219 C 148.964844 40.722656 142.417969 28.675781 121.992188 28.675781 L 107.328125 28.675781 Z M 86.773438 11.394531 L 127.097656 11.394531 C 151.320312 11.394531 169.519531 26.582031 169.519531 57.613281 C 169.519531 84.714844 155.644531 104.878906 127.097656 104.878906 L 86.773438 104.878906 L 86.773438 11.394531 "/>
<path style=" stroke:none;fill-rule:nonzero;fill:rgb(0%,0%,0%);fill-opacity:1;" d="M 194.101562 88.90625 L 216.097656 88.90625 C 224.214844 88.90625 231.285156 86.285156 231.285156 76.597656 C 231.285156 67.039062 225.261719 63.242188 216.488281 63.242188 L 194.101562 63.242188 Z M 194.101562 49.230469 L 214.917969 49.230469 C 222.117188 49.230469 227.484375 45.957031 227.484375 38.101562 C 227.484375 29.199219 220.679688 27.367188 213.347656 27.367188 L 194.101562 27.367188 Z M 173.542969 11.394531 L 217.535156 11.394531 C 235.34375 11.394531 247.390625 17.152344 247.390625 34.566406 C 247.390625 43.734375 242.808594 50.148438 234.6875 54.078125 C 246.078125 57.351562 251.84375 66.121094 251.84375 77.777344 C 251.84375 96.761719 235.734375 104.878906 218.847656 104.878906 L 173.542969 104.878906 L 173.542969 11.394531 "/>
<path style=" stroke:none;fill-rule:nonzero;fill:rgb(0%,0%,0%);fill-opacity:1;" d="M 266.144531 26.890625 C 260.855469 26.890625 256.570312 22.605469 256.570312 17.320312 C 256.570312 12.035156 260.855469 7.746094 266.144531 7.746094 C 271.429688 7.746094 275.714844 12.035156 275.714844 17.320312 C 275.714844 22.605469 271.429688 26.890625 266.144531 26.890625 Z M 266.144531 -0.00390625 C 256.574219 -0.00390625 248.816406 7.753906 248.816406 17.320312 C 248.816406 26.886719 256.574219 34.644531 266.144531 34.644531 C 275.710938 34.644531 283.464844 26.886719 283.464844 17.320312 C 283.464844 7.753906 275.710938 -0.00390625 266.144531 -0.00390625 "/>
<path style=" stroke:none;fill-rule:nonzero;fill:rgb(14.901733%,65.490723%,73.725891%);fill-opacity:1;" d="M 256.570312 17.320312 C 256.570312 22.605469 260.855469 26.890625 266.144531 26.890625 C 271.429688 26.890625 275.714844 22.605469 275.714844 17.320312 C 275.714844 12.035156 271.429688 7.746094 266.144531 7.746094 C 260.855469 7.746094 256.570312 12.035156 256.570312 17.320312 "/>
</g>
</svg>

<svg xmlns="http://www.w3.org/2000/svg" width="377.947" height="139.84" viewBox="0 0 283.46 104.88"><path d="M20.555 87.598h18.332c11.914 0 23.308-7.336 23.308-28.024 0-18.851-6.547-30.898-26.972-30.898H20.555zM0 11.395h40.328c24.223 0 42.422 15.187 42.422 46.218 0 27.102-13.879 47.266-42.422 47.266H0V11.395M107.328 87.598h18.328c11.918 0 23.309-7.336 23.309-28.024 0-18.851-6.547-30.898-26.973-30.898h-14.664zM86.773 11.395h40.325c24.222 0 42.422 15.187 42.422 46.218 0 27.102-13.875 47.266-42.422 47.266H86.773V11.395M194.102 88.906h21.996c8.117 0 15.187-2.62 15.187-12.308 0-9.559-6.023-13.356-14.797-13.356h-22.386zm0-39.676h20.816c7.2 0 12.566-3.273 12.566-11.128 0-8.903-6.804-10.735-14.136-10.735h-19.246zm-20.559-37.835h43.992c17.809 0 29.856 5.757 29.856 23.171 0 9.168-4.582 15.582-12.703 19.512 11.39 3.274 17.156 12.043 17.156 23.7 0 18.984-16.11 27.1-32.996 27.1h-45.305V11.396M266.145 26.89c-5.29 0-9.575-4.285-9.575-9.57s4.285-9.574 9.575-9.574c5.285 0 9.57 4.29 9.57 9.574 0 5.285-4.285 9.57-9.57 9.57zm0-26.894c-9.57 0-17.329 7.758-17.329 17.324 0 9.567 7.758 17.325 17.329 17.325 9.566 0 17.32-7.758 17.32-17.325 0-9.566-7.754-17.324-17.32-17.324"/><path d="M256.57 17.32c0 5.285 4.285 9.57 9.575 9.57 5.285 0 9.57-4.285 9.57-9.57s-4.285-9.574-9.57-9.574c-5.29 0-9.575 4.29-9.575 9.574" fill="#26a7bc"/></svg>
